papirus/22x22/apps/teslagrad.svg

<?xml version="1.0" encoding="UTF-8" standalone="no"?>
<!-- Created with Inkscape (http://www.inkscape.org/) -->

<svg
   xmlns:dc="http://purl.org/dc/elements/1.1/"
   xmlns:cc="http://creativecommons.org/ns#"
   xmlns:rdf="http://www.w3.org/1999/02/22-rdf-syntax-ns#"
   xmlns:svg="http://www.w3.org/2000/svg"
   xmlns="http://www.w3.org/2000/svg"
   xmlns:sodipodi="http://sodipodi.sourceforge.net/DTD/sodipodi-0.dtd"
   xmlns:inkscape="http://www.inkscape.org/namespaces/inkscape"
   id="svg2817"
   height="22"
   width="22"
   version="1.0"
   inkscape:version="0.91 r13725"
   sodipodi:docname="teslagrad.svg">
  <defs
     id="defs24" />
  <sodipodi:namedview
     pagecolor="#ffffff"
     bordercolor="#666666"
     borderopacity="1"
     objecttolerance="10"
     gridtolerance="10"
     guidetolerance="10"
     inkscape:pageopacity="0"
     inkscape:pageshadow="2"
     inkscape:window-width="1600"
     inkscape:window-height="849"
     id="namedview22"
     showgrid="false"
     inkscape:zoom="8.08"
     inkscape:cx="-12.74505"
     inkscape:cy="3.8644068"
     inkscape:window-x="0"
     inkscape:window-y="0"
     inkscape:window-maximized="1"
     inkscape:current-layer="svg2817" />
  <metadata
     id="metadata57">
    <rdf:RDF>
      <cc:Work
         rdf:about="">
        <dc:format>image/svg+xml</dc:format>
        <dc:type
           rdf:resource="http://purl.org/dc/dcmitype/StillImage" />
        <dc:title />
      </cc:Work>
    </rdf:RDF>
  </metadata>
  <path
     style="fill:#343054"
     inkscape:connector-curvature="0"
     id="path4136"
     d="M 20.00768,8.9230828 C 20.00768,13.604551 14.473218,21 9.649751,21 4.8262841,21 0.6938124,13.610051 1.0268101,8.5920851 1.2527586,5.1826085 5.4817796,0.92013772 7.9482626,1.0011372 8.776157,1.0817616 7.2865672,1.9127309 8.2796554,1.6420328 9.0323002,1.4368742 9.8260448,1.3271449 10.646239,1.3271449 c 4.823567,0 9.361436,2.91373 9.361436,7.5954479 z" />
  <path
     style="fill:#2e2e37"
     inkscape:connector-curvature="0"
     id="path4278"
     d="m 17.841195,9.5580785 c 0,3.5313255 -0.982143,7.9709455 -4.599369,10.2519295 C 12.063334,20.553503 10.835343,21 9.649851,21 8.6793576,21 7.7368641,20.701002 6.8533701,20.182006 3.3441942,18.12252 3.2160951,12.687057 3.4819433,8.6790845 4.257888,4.5851126 6.2833741,4.816611 8.626408,4.1551155 9.3794028,3.9499669 11.443889,3.8980173 12.263883,3.8980173 c 4.823567,0 5.577462,0.9784433 5.577462,5.6604612 z" />
  <path
     style="fill:#dabc9c"
     inkscape:connector-curvature="0"
     id="path4158"
     d="m 15.68871,12.699557 c 0,1.840337 -1.690939,3.499676 -2.588783,5.109965 -1.076742,1.930937 -0.836844,2.340734 -3.015529,2.340734 -3.9953726,-10e-7 -5.3149636,-3.611675 -5.3149636,-7.658948 0,-2.109685 0.1049043,-4.7091174 1.5133397,-6.0464582 1.2936411,-1.2281416 3.4759761,-1.5393394 5.3889629,-1.5393394 2.120086,0 3.162178,1.5345395 3.782924,2.4919329 0.549096,0.8468442 0.234264,3.4025267 0.234264,5.3024637 z" />
  <g
     style="fill:#405168"
     id="g4273"
     transform="matrix(0.49999657,0,0,0.49999657,-1.4921726,-0.99984911)">
    <path
       inkscape:connector-curvature="0"
       id="path4179"
       d="m 27.705,11.136 a 3.8893,8.4884 68.075 0 1 -6.4042,6.7784 3.8893,8.4884 68.075 0 1 -9.339,-0.42544 3.8893,8.4884 68.075 0 1 6.4042,-6.7784 3.8893,8.4884 68.075 0 1 9.339,0.42544 z" />
    <path
       inkscape:connector-curvature="0"
       id="path4182"
       d="m 27.712,11.794 c 1.5661,-1.4759 5.7867,-2.4001 9.0122,0.98998 3.2255,3.39008 2.4864,12.487 0.92026,13.963 -1.5661,1.4759 -1.2146,-6.5667 -4.4401,-9.9568 -3.2255,-3.3901 -7.0585,-3.5206 -5.4923,-4.9965 z" />
    <path
       inkscape:connector-curvature="0"
       id="path4184"
       d="m 12.744,16.563 c 2.0494,1.0756 2.3563,4.6803 0.68541,8.0514 -1.6708,3.3711 0.42329,8.8454 -1.6261,7.7698 -2.0494,-1.075 -4.3252,-6.833 -2.6543,-10.204 1.6713,-3.371 1.5453,-6.692 3.5953,-5.617 z" />
  </g>
  <path
     style="opacity:0.1;fill:#ffffff"
     inkscape:connector-curvature="0"
     id="path4266"
     d="m 11.667737,4.6321123 c 0.300128,0.6297456 -0.587096,1.2742912 -2.3756836,2.035436 -1.6369888,0.6953452 -3.3952767,0.9662934 -4.2623207,0.6567955 0.02441,0.05387 0.05882,0.1039893 0.1030193,0.150039 0.5868459,0.5902459 2.6577317,0.3906023 4.6250682,-0.445832 1.9665868,-0.8360942 3.0852288,-1.9920363 2.4988328,-2.5821323 -0.08718,-0.085844 -0.435287,0.2395084 -0.588896,0.1856288 z" />
  <path
     style="opacity:0.1;fill:#ffffff"
     inkscape:connector-curvature="0"
     id="path4271"
     d="M 17.1117,11.409066 C 17.557397,11.257977 17.233004,10.121625 16.729627,9.0217821 16.447819,8.4060364 16.031932,7.7105411 15.535036,7.1692948 15.120253,6.7175079 14.602992,6.3633004 14.079346,6.0439526 13.535599,5.7123648 13.042253,5.4726565 12.348457,5.2351081 c 0.05828,-0.02098 0.430018,-0.4050772 0.501847,-0.4079272 0.678995,-0.01684 -0.681195,-0.5525962 0.188939,0.2767681 0.334407,0.3187428 2.376133,1.0489428 3.179428,2.0121362 0.683945,0.8200944 0.932044,1.9367867 1.199292,2.9706798 0.118764,0.459512 0.833344,1.39674 0.173488,1.41324 -0.138434,0.0022 -0.299522,-0.02831 -0.479746,-0.09088 z" />
  <path
     style="fill:#7f90bc;stroke:#33374a;stroke-width:0.34999758;stroke-linecap:round;stroke-linejoin:round"
     inkscape:connector-curvature="0"
     id="rect4155"
     d="m 19.299185,7.9910892 c 0.290328,1.8620372 -0.456667,4.5096688 -1.368741,6.1609578 -1.354541,2.452433 -3.067529,4.026872 -4.927466,5.625461 0,0 2.655182,-4.643618 3.450326,-7.17395 0.382073,-1.215792 0.759695,-2.507633 0.611046,-3.7728745 C 16.952866,7.88159 16.638193,7.1162952 15.925558,6.4759996 15.329612,5.9405533 14.447818,5.6201055 13.654773,5.4956063 12.793379,5.3603523 11.905535,5.3370224 11.039291,5.4370467 9.7269004,5.5885907 8.3409099,5.7592345 7.2023678,6.4263899 6.584222,6.7886275 6.0089759,7.3254838 5.7197279,7.9788293 4.9925829,9.621318 5.0542325,11.578255 5.3414005,13.350292 c 0.3737375,2.306085 2.5650824,7.106452 2.5650824,7.106452 l -0.1240191,-0.04996 c 0,0 -1.2497415,-0.575496 -2.2512346,-1.566289 C 4.5527359,17.873501 3.8282409,16.501511 3.3271443,15.583517 2.3120013,13.72353 2.1563024,11.693544 2.5164499,9.6075581 2.7412984,7.5985719 3.6182423,5.9375833 5.0087328,4.8455908 7.7737138,2.9034041 11.035191,2.4493572 14.067671,3.1285526 c 2.663231,0.5298963 4.792517,2.3115341 5.231464,4.8633166 z" />
  <rect
     style="fill:#302100"
     id="rect4164"
     transform="matrix(0.90410992,-0.42729995,0.42441005,0.90547011,0,0)"
     rx="0.36127755"
     ry="0.36299247"
     height="0.53754622"
     width="2.9267302"
     y="13.156811"
     x="6.7296715" />
  <rect
     style="fill:#302100"
     id="rect4166"
     ry="0.34835631"
     rx="0.32192725"
     transform="matrix(0.93817159,0.34617058,-0.35268132,0.9357435,0,0)"
     height="0.51584452"
     width="2.6079276"
     y="6.4584332"
     x="8.8419476" />
  <ellipse
     style="fill:#302100"
     id="path4168"
     rx="0.68284529"
     ry="1.7264882"
     cy="11.556565"
     cx="7.3132672" />
  <ellipse
     style="fill:#302100"
     id="ellipse4170"
     rx="0.72524178"
     ry="1.8170437"
     transform="matrix(0.99995448,-0.00954105,0.06724277,0.99773664,0,0)"
     cy="11.290223"
     cx="12.140409" />
  <path
     style="fill:#302100"
     inkscape:connector-curvature="0"
     id="rect4174"
     d="m 11.433739,13.190054 c 0.291068,0.345382 1.067242,0.525996 1.239191,1.029542 0.152494,0.446567 -0.03249,0.998644 -0.316438,1.378341 -0.164123,0.219474 -0.442667,0.394967 -0.719645,0.410222 -0.420842,0.02318 -1.032793,-0.104269 -1.157642,-0.499311 -0.03318,-0.105 0.06986,-0.248684 0.177174,-0.280253 0.264418,-0.07778 0.485657,0.413322 0.751695,0.341007 0.472657,-0.128479 0.906144,-0.718795 0.827444,-1.193842 -0.07327,-0.442372 -0.883594,-0.415152 -1.089742,-0.815094 -0.156519,-0.303653 -0.358458,-0.957443 -0.01772,-1.020693 0.08692,0.187944 0.176654,0.492257 0.305673,0.649996 z" />
  <rect
     style="fill:#302100"
     id="rect4177"
     transform="matrix(0.99450068,0.10473007,-0.34057857,0.94021606,0,0)"
     rx="0.47367641"
     ry="0.29624921"
     height="0.43869883"
     width="3.8372712"
     y="17.341593"
     x="14.207788" />
  <path
     style="opacity:0.1;fill:#ffffff"
     inkscape:connector-curvature="0"
     id="path4305"
     d="m 7.9482626,1.0011372 c -2.466483,-0.0809995 -6.695954,4.1814713 -6.9219525,7.5909479 -0.01805,0.2724981 -0.02035,0.5539962 -0.01265,0.8394942 0.00305,-0.1134992 0.0053,-0.2279984 0.0127,-0.3394976 0.2261485,-3.4094767 4.4554195,-7.6719474 6.9219525,-7.590948 0.0235,0.0023 0.0395,0.0072 0.0595,0.0107 0.146999,-0.1904487 0.4024973,-0.4657468 -0.0595,-0.5106965 z m 2.6979814,0.3261477 c -0.8199942,0 -1.6134888,0.1092993 -2.3659836,0.3144479 -0.0345,0.00935 -0.045,0.00785 -0.073499,0.01465 0.009,0.2526982 -0.6894953,0.6932952 0.073499,0.4853466 0.7524948,-0.2051486 1.5459894,-0.3144478 2.3659836,-0.3144478 4.728968,0 9.180437,2.8018308 9.353436,7.3234498 0.003,-0.075999 0.008,-0.152999 0.008,-0.2274985 0,-4.6819679 -4.537469,-7.5959479 -9.361436,-7.5959479 z" />
  <path
     style="opacity:0.3"
     inkscape:connector-curvature="0"
     id="path4310"
     d="M 19.99968,8.6505847 C 19.827681,13.340053 14.396218,20.500003 9.649251,20.500003 5.127282,20.500003 1.1468093,14.006548 1.0028103,9.0585819 0.87731115,14.057048 4.973283,21 9.649251,21 14.472718,21 20.00768,13.604551 20.00768,8.9230828 c 0,-0.091934 -0.0044,-0.1818987 -0.0078,-0.2724581 z" />
</svg>

<?xml version="1.0" encoding="UTF-8" standalone="no"?>
<svg id="svg2817" xmlns:rdf="http://www.w3.org/1999/02/22-rdf-syntax-ns#" xmlns="http://www.w3.org/2000/svg" height="22" width="22" version="1.0" xmlns:cc="http://creativecommons.org/ns#" xmlns:dc="http://purl.org/dc/elements/1.1/">
 <metadata id="metadata57">
  <rdf:RDF>
   <cc:Work rdf:about="">
    <dc:format>image/svg+xml</dc:format>
    <dc:type rdf:resource="http://purl.org/dc/dcmitype/StillImage"/>
    <dc:title/>
   </cc:Work>
  </rdf:RDF>
 </metadata>
 <path id="path4136" fill="#343054" d="m20.008 8.9231c0 4.6819-5.535 12.077-10.358 12.077-4.8237 0-8.9562-7.39-8.6232-12.408 0.226-3.4094 4.455-7.6719 6.9215-7.5909 0.8279 0.0807-0.6617 0.9116 0.3314 0.6409 0.7526-0.2051 1.5463-0.3149 2.3663-0.3149 4.8236 0 9.3614 2.9137 9.3614 7.5954z"/>
 <path id="path4278" fill="#2e2e37" d="m17.841 9.5581c0 3.5313-0.98214 7.9709-4.5994 10.252-1.179 0.744-2.407 1.19-3.5921 1.19-0.9705 0-1.913-0.299-2.7965-0.818-3.5092-2.059-3.6373-7.495-3.3715-11.503 0.776-4.0939 2.8015-3.8624 5.1445-4.5239 0.753-0.2051 2.8176-0.2571 3.6376-0.2571 4.8236 0 5.5775 0.97844 5.5775 5.6605z"/>
 <path id="path4158" fill="#dabc9c" d="m15.689 12.7c0 1.8403-1.6909 3.4997-2.5888 5.11-1.0767 1.9309-0.83684 2.3407-3.0155 2.3407-3.9954-0.000001-5.315-3.6117-5.315-7.6589 0-2.1097 0.1049-4.7091 1.5133-6.0465 1.2936-1.2281 3.476-1.5393 5.389-1.5393 2.1201 0 3.1622 1.5345 3.7829 2.4919 0.5491 0.84684 0.23426 3.4025 0.23426 5.3025z"/>
 <g id="g4273" fill="#405168" transform="matrix(0.5 0 0 0.5 -1.4922 -.99985)">
  <path id="path4179" d="m27.705 11.136a3.8893 8.4884 68.075 0 1 -6.4042 6.7784 3.8893 8.4884 68.075 0 1 -9.339 -0.42544 3.8893 8.4884 68.075 0 1 6.4042 -6.7784 3.8893 8.4884 68.075 0 1 9.339 0.42544z"/>
  <path id="path4182" d="m27.712 11.794c1.5661-1.4759 5.7867-2.4001 9.0122 0.98998s2.4864 12.487 0.92026 13.963c-1.5661 1.4759-1.2146-6.5667-4.4401-9.9568s-7.0585-3.5206-5.4923-4.9965z"/>
  <path id="path4184" d="m12.744 16.563c2.0494 1.0756 2.3563 4.6803 0.68541 8.0514-1.6708 3.3711 0.42329 8.8454-1.6261 7.7698-2.0494-1.075-4.3252-6.833-2.6543-10.204 1.6713-3.371 1.5453-6.692 3.5953-5.617z"/>
 </g>
 <path id="path4266" opacity=".1" fill="#fff" d="m11.668 4.6321c0.30013 0.62975-0.5871 1.2743-2.3757 2.0354-1.637 0.69535-3.3953 0.96629-4.2623 0.6568 0.02441 0.05387 0.05882 0.10399 0.10302 0.15004 0.58685 0.59025 2.6577 0.3906 4.6251-0.44583 1.9666-0.83609 3.0852-1.992 2.4988-2.5821-0.08718-0.085844-0.43529 0.23951-0.5889 0.18563z"/>
 <path id="path4271" opacity=".1" fill="#fff" d="m17.112 11.409c0.445-0.151 0.121-1.287-0.382-2.3872-0.282-0.6158-0.698-1.3113-1.195-1.8525-0.415-0.4518-0.932-0.806-1.456-1.1253-0.543-0.3316-1.037-0.5713-1.731-0.8089 0.05828-0.02098 0.43002-0.40508 0.50185-0.40793 0.679-0.01684-0.6812-0.5526 0.18894 0.27677 0.33441 0.31874 2.3761 1.0489 3.1794 2.0121 0.68394 0.82009 0.93204 1.9368 1.1993 2.9707 0.11876 0.45951 0.83334 1.3967 0.17349 1.4132-0.13843 0.0022-0.29952-0.02831-0.47975-0.09088z"/>
 <path id="rect4155" stroke-linejoin="round" d="m19.299 7.9911c0.29033 1.862-0.45667 4.5097-1.3687 6.161-1.3545 2.4524-3.0675 4.0269-4.9275 5.6255 0 0 2.6552-4.6436 3.4503-7.174 0.38207-1.2158 0.7597-2.5076 0.61105-3.7729-0.111-0.9486-0.426-1.7139-1.138-2.3542-0.596-0.5354-1.478-0.8559-2.271-0.9804-0.862-0.1352-1.749-0.1586-2.616-0.0586-1.3121 0.1516-2.6981 0.3222-3.8366 0.9894-0.6182 0.3622-1.1934 0.8991-1.4827 1.5524-0.7271 1.6425-0.6655 3.5992-0.3783 5.3712 0.37374 2.3061 2.5651 7.1065 2.5651 7.1065l-0.12402-0.04996s-1.2497-0.5755-2.2512-1.5663c-0.9786-0.966-1.7031-2.338-2.2042-3.256-1.0151-1.86-1.1708-3.89-0.8107-5.9764 0.2249-2.009 1.1018-3.67 2.4923-4.762 2.765-1.9422 6.0263-2.3962 9.0593-1.717 2.6632 0.5299 4.7925 2.3115 5.2315 4.8633z" stroke="#33374a" stroke-linecap="round" stroke-width="0.35" fill="#7f90bc"/>
 <rect id="rect4164" transform="matrix(.90411 -.42730 .42441 .90547 0 0)" rx=".36128" ry=".36299" height=".53755" width="2.9267" y="13.157" x="6.7297" fill="#302100"/>
 <rect id="rect4166" ry=".34836" rx=".32193" transform="matrix(.93817 .34617 -.35268 .93574 0 0)" height=".51584" width="2.6079" y="6.4584" x="8.8419" fill="#302100"/>
 <ellipse id="path4168" rx=".68285" ry="1.7265" cy="11.557" cx="7.3133" fill="#302100"/>
 <ellipse id="ellipse4170" rx=".72524" transform="matrix(.99995 -.0095410 .067243 .99774 0 0)" ry="1.817" cy="11.29" cx="12.14" fill="#302100"/>
 <path id="rect4174" fill="#302100" d="m11.434 13.19c0.29107 0.34538 1.0672 0.526 1.2392 1.0295 0.15249 0.44657-0.03249 0.99864-0.31644 1.3783-0.16412 0.21947-0.44267 0.39497-0.71964 0.41022-0.42084 0.02318-1.0328-0.10427-1.1576-0.49931-0.03318-0.105 0.06986-0.24868 0.17717-0.28025 0.26442-0.07778 0.48566 0.41332 0.7517 0.34101 0.47266-0.12848 0.90614-0.7188 0.82744-1.1938-0.07327-0.44237-0.88359-0.41515-1.0897-0.81509-0.15652-0.30365-0.35846-0.95744-0.01772-1.0207 0.08692 0.18794 0.17665 0.49226 0.30567 0.65z"/>
 <rect id="rect4177" transform="matrix(.99450 .10473 -.34058 .94022 0 0)" rx=".47368" ry=".29625" height=".43870" width="3.8373" y="17.342" x="14.208" fill="#302100"/>
 <path id="path4305" opacity=".1" fill="#fff" d="m7.9483 1.0011c-2.4665-0.081-6.696 4.1815-6.922 7.5909-0.01805 0.2725-0.02035 0.554-0.01265 0.83949 0.00305-0.1135 0.0053-0.228 0.0127-0.3395 0.22615-3.4095 4.4554-7.6719 6.922-7.5909 0.0235 0.0023 0.0395 0.0072 0.0595 0.0107 0.147-0.19045 0.4025-0.46575-0.0595-0.5107zm2.698 0.32615c-0.81999 0-1.6135 0.1093-2.366 0.31445-0.0345 0.00935-0.045 0.00785-0.073499 0.01465 0.009 0.2527-0.6895 0.6933 0.073499 0.48535 0.75249-0.20515 1.546-0.31445 2.366-0.31445 4.729 0 9.1804 2.8018 9.3534 7.3234 0.003-0.075999 0.008-0.153 0.008-0.2275 0-4.682-4.5375-7.5959-9.3614-7.5959z"/>
 <path id="path4310" opacity=".2" d="m20 9.1506c-0.172 4.6894-5.604 11.849-10.351 11.849-4.5217 0-8.5022-6.493-8.6462-11.441-0.12549 4.998 3.9705 11.941 8.6465 11.941 4.8235 0 10.358-7.3954 10.358-12.077 0-0.091934-0.0044-0.1819-0.0078-0.27246z"/>
</svg>
